X:1
T:Here We Come A-Wazlin'
O:George Dunn
A:Black Country UK
Z:John Adams - Ryburn 3 Step
S:john adams <johnadams:imailbox.com> tradtunes 2009-1-4
D:In Paper Houses - Pete Coe - BASHCD53
D:George Dunn - Trailer LEE4042
L:1/8
M:4/4
K:D
D2D2 D2D2 | D4 A,2A,2 | D2D2 E2E2 | F8    | F2F2 F2F2   | F4  E2F2 | A2G2 F2E2 | F8    ||
F2F2 E2F2 | G4 G4     | E2E2 D2E2 | F4 F4 | D4   A,2A,2 | B,4 G2G2 | F2E2 D2C2 | D6 A2 ||
A3G  F2G2 | A6    A2  | A3G  F2G2 | A8    | D4   A,2A,2 | B,4 G2G2 | F2E2 D2C2 | D8    |]
